packages/ui/public/icons/sidebar-messages-icon.svg

<svg width="24" height="24" viewBox="0 0 24 24" fill="none" xmlns="http://www.w3.org/2000/svg">
  <path d="M11 4H7.8C6.11984 4 5.27976 4 4.63803 4.32698C4.07354 4.6146 3.6146 5.07354 3.32698 5.63803C3 6.27976 3 7.11984 3 8.8V14C3 14.93 3 15.395 3.10222 15.7765C3.37962 16.8117 4.18827 17.6204 5.22354 17.8978C5.60504 18 6.07003 18 7 18V20.3355C7 20.8684 7 21.1348 7.10923 21.2716C7.20422 21.3906 7.34827 21.4599 7.50054 21.4597C7.67563 21.4595 7.88367 21.2931 8.29976 20.9602L10.6852 19.0518C11.1725 18.662 11.4162 18.4671 11.6875 18.3285C11.9282 18.2055 12.1844 18.1156 12.4492 18.0613C12.7477 18 13.0597 18 13.6837 18H15.2C16.8802 18 17.7202 18 18.362 17.673C18.9265 17.3854 19.3854 16.9265 19.673 16.362C20 15.7202 20 14.8802 20 13.2V13" stroke-opacity="0.923" stroke-linecap="round" stroke-linejoin="round" />
  <path d="M20.1213 3.87868C21.2929 5.05025 21.2929 6.94975 20.1213 8.12132C18.9497 9.29289 17.0503 9.29289 15.8787 8.12132C14.7071 6.94975 14.7071 5.05025 15.8787 3.87868C17.0503 2.70711 18.9497 2.70711 20.1213 3.87868Z" stroke="white" stroke-opacity="0.5" stroke-width="2" stroke-linecap="round" stroke-linejoin="round" />
</svg>

<svg width="24" height="24" fill="none" xmlns="http://www.w3.org/2000/svg"><path d="M11 4H7.8c-1.68 0-2.52 0-3.162.327a3 3 0 0 0-1.311 1.311C3 6.28 3 7.12 3 8.8V14c0 .93 0 1.395.102 1.777a3 3 0 0 0 2.122 2.12C5.605 18 6.07 18 7 18v2.335c0 .533 0 .8.11.937a.5.5 0 0 0 .39.188c.176 0 .384-.167.8-.5l2.385-1.908c.487-.39.731-.585 1.002-.724.241-.122.497-.212.762-.267.299-.061.61-.061 1.235-.061H15.2c1.68 0 2.52 0 3.162-.327a3 3 0 0 0 1.311-1.311C20 15.72 20 14.88 20 13.2V13"/><path d="M20.121 3.879A3 3 0 1 1 15.88 8.12 3 3 0 0 1 20.12 3.88Z" stroke="#fff" stroke-opacity=".5" stroke-width="2" stroke-linecap="round" stroke-linejoin="round"/></svg>
